!!!OTL: Yun tian ge
!!!ARE: Asia, China,ÿAnhui, Hexian
!! III, 561
!!!SCT: C1600
!!!YEM: Copyright 1995, estate of Helmut Schaffrath.
**kern
*ICvox
*Ivox
*M2/4
*k[b-]
*F:
{8cc
4cc
8dd
=1
8ff
4.gg
=2
8ff
16dd
16ff
8cc
8cc
=3
8.ff
16gg
8dd
8cc
=4
2a}
=5
{8ff
16dd
16a
8cc
16a
16a
=6
8ff
16dd
16cc
4ff
=7
8cc
16cc
16cc
8dd
8ff
=8
8cc
8a
4cc}
=9
{8a
8ff
8dd
8a
=10
16cc
16dd
16cc
16a
4g
=11
8d
8a
8g
8d
=12
4f
4f}
=13
{4cc
16dd
16cc
16dd
16ff
=14
8cc
8a
4cc
=15
4ff
8dd
8a
=16
2g}
=17
{4cc
16dd
16cc
16dd
16ff
=18
8cc
8a
[4cc
=19
2cc]}
==
!!!AGN: Shange, Tiange
!!!AMT: simple duple
!!!AIN: vox
!!!EED: Helmut Schaffrath
!!!EEV: 1.0
*-
!!!ONB: Tied note syntax fixed by Craig Sapp, 2004/05/03/
